iconos/flecha-izquierda.svg

<svg width="82" height="82" viewBox="0 0 82 82" fill="none" xmlns="http://www.w3.org/2000/svg">
<path d="M65 41H25M43 16C43 19.2831 42.3534 22.534 41.097 25.5671C39.8406 28.6002 37.9991 31.3562 35.6777 33.6777C33.3562 35.9991 30.6002 37.8406 27.5671 39.097C24.5339 40.3534 21.283 41 18 41C21.283 41 24.5339 41.6466 27.5671 42.903C30.6002 44.1594 33.3562 46.0009 35.6777 48.3223C37.9991 50.6438 39.8406 53.3998 41.097 56.4329C42.3534 59.4661 43 62.717 43 66M1 41C0.999998 18.9086 18.9086 1 41 1C63.0914 0.999998 81 18.9086 81 41C81 63.0914 63.0914 81 41 81C18.9086 81 1 63.0914 1 41Z" stroke="#323232" stroke-width="2"/>
</svg>

<?xml version="1.0" encoding="UTF-8"?>
<svg id="Capa_1" xmlns="http://www.w3.org/2000/svg" version="1.1" viewBox="0 0 82 82">
  <!-- Generator: Adobe Illustrator 29.0.0, SVG Export Plug-In . SVG Version: 2.1.0 Build 186)  -->
  <defs>
    <style>
      .st0 {
        fill: #b2b1d9;
      }

      .st1 {
        fill: none;
        stroke: #323232;
        stroke-width: 3px;
      }
    </style>
  </defs>
  <circle class="st0" cx="41" cy="41" r="40"/>
  <path class="st1" d="M65,41H25M43,16c0,3.3-.6,6.5-1.9,9.6s-3.1,5.8-5.4,8.1c-2.3,2.3-5.1,4.2-8.1,5.4-3,1.3-6.3,1.9-9.6,1.9,3.3,0,6.5.6,9.6,1.9,3,1.3,5.8,3.1,8.1,5.4,2.3,2.3,4.2,5.1,5.4,8.1,1.3,3,1.9,6.3,1.9,9.6M1,41c0-22.1,17.9-40,40-40,22.1,0,40,17.9,40,40s-17.9,40-40,40S1,63.1,1,41Z"/>
</svg>
